app/dist/common/images/kpc-pharmaceuticals.svg

<svg height="18" viewBox="0 0 18 18" width="18" xmlns="http://www.w3.org/2000/svg"><path d="m0 0h18v18h-18z" fill="#f0f3fa"/><path d="m3 6h.32v5.74h11.36v-5.74h.32v6h-12z" fill="#6dbd83"/><g fill="#7accf5"><path d="m3.68 6h.32v5h10v-5h.32v5.26h-10.64z"/><path d="m5 6h.67v1.42l.43-1.42h.72l-.5 1.75.68 2.25h-.78l-.55-1.88v1.88h-.67zm3 0h1.33c.37 0 .67.25.67.56v1.64c0 .3-.3.56-.67.56h-.53v1.24h-.8zm1.2.9a.4.4 0 0 0 -.4-.4v1.75a.4.4 0 0 0 .4-.4zm1.8-.48c0-.23.23-.42.51-.42h.98c.28 0 .51.19.51.42v.83h-.8v-.55a.2.2 0 0 0 -.4 0v2.6a.2.2 0 1 0 .4 0v-.55h.8v.83c0 .23-.23.42-.51.42h-.98c-.28 0-.51-.19-.51-.42z"/></g></svg>

<!-- by TradingView --><svg width="18" height="18" viewBox="0 0 18 18" xmlns="http://www.w3.org/2000/svg"><path fill="#F0F3FA" d="M0 0h18v18H0z"/><path d="M3 6h.32v5.74h11.36V6H15v6H3V6Z" fill="#6DBD83"/><path d="M3.68 6H4v5h10V6h.32v5.26H3.68V6Z" fill="#7ACCF5"/><path d="M5 6h.67v1.42L6.1 6h.72l-.5 1.75L7 10h-.78l-.55-1.88V10H5V6ZM8 6h1.33c.37 0 .67.25.67.56V8.2c0 .3-.3.56-.67.56H8.8V10H8V6Zm1.2.9a.4.4 0 0 0-.4-.4v1.75a.4.4 0 0 0 .4-.4V6.9ZM11 6.42c0-.23.23-.42.51-.42h.98c.28 0 .51.19.51.42v.83h-.8V6.7a.2.2 0 0 0-.4 0v2.6a.2.2 0 1 0 .4 0v-.55h.8v.83c0 .23-.23.42-.51.42h-.98c-.28 0-.51-.19-.51-.42V6.42Z" fill="#7ACCF5"/></svg>
